tools/download-figma-icons/icons/outlined-medium/renewable-energy.svg

<svg width="24" height="24" viewBox="0 0 24 24" fill="none" xmlns="http://www.w3.org/2000/svg">
<path fill-rule="evenodd" clip-rule="evenodd" d="M5.3446 6.38584C5.33886 6.3974 5.33317 6.40888 5.32515 6.41997C5.28015 6.51821 5.25015 6.62996 5.25015 6.74996C5.25015 6.83321 5.26515 6.90746 5.28765 6.98245C5.28944 6.9868 5.29121 6.99114 5.29298 6.99547C5.30675 7.02922 5.32029 7.06238 5.3409 7.09495C5.3409 7.10245 5.34765 7.1182 5.35515 7.12495C5.38515 7.1782 5.42339 7.22995 5.46764 7.2757C5.48975 7.30278 5.52 7.32619 5.54939 7.34894C5.55989 7.35707 5.57027 7.3651 5.58014 7.37319C5.58839 7.37319 5.59514 7.37994 5.60264 7.38744L5.60264 7.38744C5.60675 7.39156 5.61068 7.39362 5.61442 7.39559C5.61818 7.39756 5.62176 7.39943 5.62514 7.40319C5.73014 7.46319 5.86588 7.49994 6.00013 7.49994C6.13513 7.49994 6.27087 7.46319 6.37512 7.40319C6.37878 7.39953 6.38244 7.39766 6.38619 7.39574C6.39012 7.39373 6.39415 7.39167 6.39837 7.38744C6.40512 7.37994 6.41262 7.37319 6.42087 7.37319C6.43031 7.36545 6.44019 7.35775 6.45015 7.34998C6.47975 7.3269 6.51017 7.30319 6.53262 7.2757C6.57761 7.22995 6.61586 7.1782 6.64586 7.12495C6.65336 7.1182 6.66011 7.10245 6.66011 7.09495C6.68072 7.06238 6.69425 7.02922 6.70803 6.99548C6.7098 6.99115 6.71157 6.9868 6.71336 6.98245C6.73586 6.90746 6.75011 6.83321 6.75011 6.74996C6.75011 6.62996 6.72011 6.51821 6.67586 6.41997C6.66783 6.40888 6.66214 6.39741 6.65641 6.38584C6.65089 6.37471 6.64533 6.3635 6.63761 6.35247C6.63698 6.35184 6.63635 6.35122 6.63573 6.3506C6.62891 6.34383 6.62261 6.33759 6.62261 6.33072C6.59261 6.28497 6.56261 6.24822 6.52587 6.21747C6.49183 6.18412 6.46397 6.16188 6.43108 6.13563C6.42773 6.13296 6.42433 6.13025 6.42087 6.12747C6.41665 6.12747 6.41458 6.12571 6.41257 6.12398C6.41065 6.12233 6.40878 6.12072 6.40512 6.12072C6.39387 6.11285 6.38075 6.10535 6.36762 6.09785C6.3545 6.09035 6.34137 6.08285 6.33012 6.07498C6.32177 6.0708 6.31598 6.06895 6.30977 6.06697C6.30482 6.06539 6.2996 6.06372 6.29262 6.06073C6.26214 6.04498 6.23166 6.03646 6.20117 6.02793C6.18666 6.02387 6.17214 6.01982 6.15763 6.01498H6.12763C6.09088 6.00748 6.04588 5.99998 6.00013 5.99998H5.97013C5.95513 6.00748 5.94763 6.00748 5.93338 6.00748C5.92176 6.00748 5.91238 6.00935 5.90301 6.01123C5.89363 6.0131 5.88426 6.01498 5.87263 6.01498L5.8692 6.01545C5.81063 6.02349 5.75915 6.03057 5.70839 6.06073C5.70152 6.06367 5.69622 6.06533 5.69124 6.06689C5.68481 6.0689 5.67892 6.07075 5.67089 6.07498C5.65514 6.08323 5.64014 6.09073 5.62514 6.09748C5.61089 6.11323 5.59514 6.12072 5.58014 6.12747C5.57668 6.13025 5.57328 6.13296 5.56993 6.13563C5.53703 6.16188 5.50918 6.18412 5.47514 6.21747C5.43764 6.24822 5.40764 6.28497 5.37765 6.33072C5.37765 6.33822 5.3709 6.34497 5.3634 6.35247C5.35567 6.3635 5.35012 6.37471 5.3446 6.38584ZM17.0399 13.4998H14.0857L13.7107 14.9997H16.6649L17.0399 13.4998ZM17.4148 11.9998L17.7898 10.4999H14.8357L14.4607 11.9998H17.4148ZM18.9606 11.9998H21.9147L22.2897 10.4999H19.3355L18.9606 11.9998ZM18.5856 13.4998L18.2106 14.9997H21.1647L21.5397 13.4998H18.5856ZM4.12198 18.8726L4.12746 18.8755C4.5017 19.0758 4.83394 19.2498 5.25018 19.3638V8.86552C4.98844 8.77553 4.74769 8.63228 4.5377 8.45228L1.12528 10.403C1.00529 10.4697 0.877789 10.4997 0.750293 10.4997C0.488549 10.4997 0.241055 10.3655 0.0978091 10.1247C-0.103936 9.76475 0.0153112 9.30801 0.375302 9.09727L3.78772 7.14807C3.76522 7.02057 3.75022 6.88482 3.75022 6.74983C3.75022 5.7756 4.3802 4.94237 5.25018 4.63488V0.749981C5.25018 0.338241 5.58842 0 6.00016 0C6.41265 0 6.75014 0.338241 6.75014 0.749981V4.63488C7.62087 4.94237 8.2501 5.7756 8.2501 6.74983C8.2501 6.88482 8.23585 7.02057 8.21335 7.14807L11.625 9.09727C11.9858 9.30801 12.105 9.76475 11.9033 10.1247C11.76 10.3655 11.5125 10.4997 11.25 10.4997C11.1225 10.4997 10.9958 10.4697 10.875 10.403L7.46337 8.45228C7.25263 8.63228 7.01263 8.77553 6.75014 8.86552V19.4223C6.75014 19.4353 6.74684 19.4474 6.74354 19.4595C6.74096 19.4689 6.73838 19.4784 6.73739 19.4883C7.58037 19.4328 8.04911 19.183 8.62359 18.8755L8.62611 18.8742C9.39347 18.4643 10.2634 17.9995 11.997 17.9995C13.7343 17.9995 14.605 18.4642 15.3727 18.8739L15.3772 18.8763C15.7514 19.0765 16.0837 19.2498 16.4999 19.3638V16.4996H12.75C12.5175 16.4996 12.3008 16.3953 12.1575 16.2153C12.015 16.0278 11.97 15.7946 12.0233 15.5696L12.765 12.5997L13.5232 9.56976C13.605 9.23226 13.905 8.99977 14.25 8.99977H23.2497C23.483 8.99977 23.6997 9.10477 23.8422 9.28476C23.9855 9.47226 24.0297 9.7055 23.9772 9.9305L23.2355 12.9004L22.4772 15.9303C22.3955 16.2678 22.0948 16.4996 21.7498 16.4996H17.9999V19.4875C18.8353 19.4305 19.3018 19.1815 19.8733 18.8755L19.876 18.8741C20.644 18.4642 21.5148 17.9995 23.2497 17.9995C23.6645 17.9995 23.9997 18.3355 23.9997 18.7495C23.9997 19.1643 23.6645 19.4995 23.2497 19.4995C21.8878 19.4995 21.2818 19.8235 20.5805 20.1985L20.5799 20.1988C19.8766 20.5745 19.0809 20.9995 17.6234 20.9995C16.1684 20.9995 15.3719 20.5742 14.6707 20.1992L14.6667 20.1971C13.9657 19.823 13.3594 19.4995 11.997 19.4995C10.6373 19.4995 10.0313 19.8235 9.33083 20.1985C8.62809 20.5742 7.83236 20.9995 6.3744 20.9995C4.91869 20.9995 4.12221 20.5742 3.42022 20.1985L3.41826 20.1974C2.71711 19.8229 2.11173 19.4995 0.750293 19.4995C0.336303 19.4995 0.000311556 19.1643 0.000311556 18.7495C0.000311556 18.3355 0.336303 17.9995 0.750293 17.9995C2.48462 17.9995 3.35534 18.4638 4.12198 18.8726ZM19.8736 21.8758C20.6416 21.4649 21.513 20.9999 23.25 20.9999C23.6647 20.9999 24 21.3351 24 21.7498C24 22.1646 23.6647 22.4998 23.25 22.4998C21.8886 22.4998 21.2825 22.8236 20.5809 23.1984L20.5801 23.1988C19.8773 23.5746 19.0808 23.9998 17.6236 23.9998C16.1687 23.9998 15.3722 23.5746 14.671 23.1996L14.6681 23.198C13.9666 22.8237 13.3597 22.4998 11.9973 22.4998C10.6376 22.4998 10.0316 22.8238 9.33035 23.1988C8.62836 23.5746 7.83188 23.9998 6.37467 23.9998C4.91896 23.9998 4.12248 23.5746 3.4205 23.1988L3.41968 23.1984C2.71805 22.8236 2.112 22.4998 0.750565 22.4998C0.335825 22.4998 0.000583615 22.1646 0.000583615 21.7498C0.000583615 21.3351 0.335825 20.9999 0.750565 20.9999C2.48787 20.9999 3.35935 21.4654 4.1272 21.8756L4.12773 21.8758C4.77946 22.2246 5.2947 22.4998 6.37467 22.4998C7.45614 22.4998 7.97138 22.2246 8.62386 21.8758C9.39109 21.4649 10.2618 20.9999 11.9973 20.9999C13.7372 20.9999 14.6087 21.4656 15.3774 21.8766L15.3779 21.8768C16.0294 22.2247 16.5447 22.4998 17.6236 22.4998C18.7051 22.4998 19.2211 22.2246 19.8736 21.8758Z" fill="black"/>
</svg>

<svg xmlns="http://www.w3.org/2000/svg" width="24" height="24" fill="none" viewBox="0 0 24 24"><path fill="currentColor" fill-rule="evenodd" d="M5.345 6.386q-.008.017-.02.034a.8.8 0 0 0-.075.33.8.8 0 0 0 .038.232l.005.013a1 1 0 0 0 .048.1.7.7 0 0 0 .127.18c.022.028.052.051.081.074l.031.024q.011.002.023.014.006.007.011.009.006.002.011.007a.78.78 0 0 0 .75 0l.011-.007q.006-.002.012-.009.01-.012.023-.014l.03-.023c.029-.023.06-.047.082-.074a.7.7 0 0 0 .127-.181q.028-.05.048-.1l.005-.013a.8.8 0 0 0 .037-.232.8.8 0 0 0-.094-.364l-.018-.034-.002-.001q-.012-.01-.013-.02a.5.5 0 0 0-.097-.114 1 1 0 0 0-.113-.093q-.002-.003-.008-.003l-.037-.023q-.021-.011-.038-.023l-.02-.008-.017-.006q-.045-.022-.092-.033l-.043-.013h-.03A1 1 0 0 0 6 6h-.03c-.015.007-.022.007-.037.007l-.03.004q-.014.003-.03.004h-.004a.4.4 0 0 0-.16.046l-.018.006-.02.008-.046.022a.1.1 0 0 1-.045.03l-.01.009c-.033.026-.06.048-.095.081a.5.5 0 0 0-.097.114q-.001.01-.015.021zM17.04 13.5h-2.954L13.71 15h2.954zm.375-1.5.375-1.5h-2.954L14.46 12zm1.546 0h2.954l.375-1.5h-2.954zm-.375 1.5L18.21 15h2.954l.375-1.5zM4.122 18.873l.005.002c.375.2.707.375 1.123.489V8.866a2.2 2.2 0 0 1-.712-.414l-3.413 1.951a.764.764 0 0 1-1.027-.278.76.76 0 0 1 .277-1.028l3.413-1.949a2.3 2.3 0 0 1-.038-.398c0-.974.63-1.808 1.5-2.115V.75C5.25.338 5.588 0 6 0c.413 0 .75.338.75.75v3.885a2.25 2.25 0 0 1 1.463 2.513l3.412 1.95c.36.21.48.667.278 1.027a.76.76 0 0 1-.653.375.8.8 0 0 1-.375-.097l-3.412-1.95a2.2 2.2 0 0 1-.713.413v10.556q0 .02-.006.037l-.007.03c.843-.056 1.312-.306 1.887-.614h.002c.767-.41 1.637-.875 3.371-.875 1.737 0 2.608.464 3.376.874l.004.002c.374.2.707.374 1.123.488V16.5h-3.75a.75.75 0 0 1-.592-.285.77.77 0 0 1-.135-.645l.742-2.97.758-3.03A.745.745 0 0 1 14.25 9h9c.233 0 .45.105.592.285.143.187.188.42.135.646l-.742 2.97-.758 3.03a.745.745 0 0 1-.727.569H18v2.988c.835-.058 1.302-.306 1.873-.613h.003c.768-.41 1.639-.875 3.374-.875a.75.75 0 1 1 0 1.5c-1.362 0-1.968.323-2.67.698-.703.377-1.5.802-2.957.802-1.455 0-2.251-.426-2.952-.8l-.004-.003c-.701-.374-1.308-.697-2.67-.697-1.36 0-1.966.323-2.666.698-.703.376-1.499.802-2.957.802-1.455 0-2.252-.426-2.954-.802h-.002c-.7-.375-1.306-.698-2.668-.698a.75.75 0 1 1 0-1.5c1.735 0 2.605.464 3.372.873m15.752 3.003c.768-.411 1.639-.876 3.376-.876a.75.75 0 1 1 0 1.5c-1.361 0-1.968.324-2.67.698-.703.377-1.5.802-2.956.802s-2.252-.425-2.953-.8l-.003-.002c-.701-.374-1.308-.698-2.67-.698-1.36 0-1.966.324-2.668.699-.702.376-1.498.8-2.955.8-1.456 0-2.253-.424-2.954-.8H3.42c-.702-.375-1.308-.7-2.67-.7a.75.75 0 1 1 0-1.5c1.738 0 2.61.466 3.377.877.652.349 1.168.624 2.248.624s1.596-.275 2.249-.624c.767-.411 1.638-.876 3.373-.876 1.74 0 2.612.466 3.38.877.652.348 1.168.623 2.247.623 1.081 0 1.597-.275 2.25-.624" clip-rule="evenodd"/></svg>
